resources/icons/icons/youTrack_dark.svg

<svg xmlns="http://www.w3.org/2000/svg" width="13" height="13" viewBox="0 0 13 13">
    <path fill-rule="evenodd" clip-rule="evenodd" d="M12,1l-11,0l0,11l11,0l0,-11Zm-5,9l-5,0l0,1l5,0l0,-1Zm-3.279,-2l1.1,0l0,-1.993l1.922,-3.007l-1.25,0l-1.214,2.007l-1.193,-2.007l-1.286,0l1.921,3.029l0,1.971Zm5.9,0l-1.1,0l0,-3.986l-1.521,0l-0,-1.014l4.143,0l0,1.014l-1.522,0l0,3.986Z" style="fill:#3592c4;"/>
</svg>

<svg xmlns="http://www.w3.org/2000/svg" width="13" height="13" viewBox="0 0 13 13">
    <path fill-rule="evenodd" clip-rule="evenodd" d="M12,1L1,1L1,12L12,12L12,1ZM7,10L2,10L2,11L7,11L7,10ZM3.721,8L4.821,8L4.821,6.007L6.743,3L5.493,3L4.279,5.007L3.086,3L1.8,3L3.721,6.029L3.721,8ZM9.621,8L8.521,8L8.521,4.014L7,4.014L7,3L11.143,3L11.143,4.014L9.621,4.014L9.621,8Z" style="fill:#3592c4;"/>
</svg>
